modules/hawcons-stroke/icons/icon-136-document-edit.svg

<?xml version="1.0" encoding="UTF-8" standalone="no"?>
<svg width="32px" height="32px" viewBox="0 0 32 32" version="1.1" xmlns="http://www.w3.org/2000/svg" xmlns:xlink="http://www.w3.org/1999/xlink" xmlns:sketch="http://www.bohemiancoding.com/sketch/ns">
    <!-- Generator: Sketch 3.0.3 (7891) - http://www.bohemiancoding.com/sketch -->
    <title>icon 136 document edit</title>
    <desc>Created with Sketch.</desc>
    <defs></defs>
    <g id="Page-1" stroke="none" stroke-width="1" fill="none" fill-rule="evenodd" sketch:type="MSPage">
        <g id="icon-136-document-edit" sketch:type="MSArtboardGroup" fill="#929292">
            <path d="M26.4432278,12.1503345 L15.1570131,23.4499064 L15.1570131,23.4499064 L12.5514465,20.8443397 L23.8435383,9.55064513 L26.4432278,12.1503345 L26.4432278,12.1503345 Z M27.1499164,11.4428096 L28.8790954,9.71158405 C29.269069,9.32114892 29.266195,8.68650423 28.8743,8.29568497 L27.6944866,7.11910998 C27.3018646,6.72756564 26.6692577,6.72452466 26.2779126,7.11592531 L24.5505949,8.84348817 L27.1499164,11.4428096 L27.1499164,11.4428096 Z M11.9037061,21.6108129 L11.2641602,24.7235103 L14.3990645,24.1061713 L11.9037061,21.6108129 L11.9037061,21.6108129 L11.9037061,21.6108129 Z M22,10 L22,10 L16,3 L5.00276013,3 C3.89666625,3 3,3.89833832 3,5.00732994 L3,27.9926701 C3,29.1012878 3.89092539,30 4.99742191,30 L20.0025781,30 C21.1057238,30 22,29.1017876 22,28.0092049 L22,18 L29.5801067,10.4198932 C30.3642921,9.63570785 30.3661881,8.36618809 29.5897496,7.58974962 L28.4102504,6.41025036 C27.6313906,5.6313906 26.372781,5.62721897 25.5801067,6.41989327 L22,10 L22,10 L22,10 Z M21,19 L21,28.0066023 C21,28.5550537 20.5523026,29 20.0000398,29 L4.9999602,29 C4.45470893,29 4,28.5543187 4,28.004543 L4,4.99545703 C4,4.45526288 4.44573523,4 4.9955775,4 L15,4 L15,8.99408095 C15,10.1134452 15.8944962,11 16.9979131,11 L21,11 L11,21 L10,26 L15,25 L21,19 L21,19 L21,19 Z M16,4.5 L16,8.99121523 C16,9.54835167 16.4506511,10 16.9967388,10 L20.6999512,10 L16,4.5 L16,4.5 Z" id="document-edit" sketch:type="MSShapeGroup"></path>
        </g>
    </g>
</svg>

<svg width="32" height="32" xmlns="http://www.w3.org/2000/svg"><path d="M26.443 12.15l-11.286 11.3-2.606-2.606L23.844 9.551l2.6 2.6zm.707-.707l1.73-1.731c.39-.39.386-1.025-.006-1.416l-1.18-1.177a1.001 1.001 0 0 0-1.416-.003L24.55 8.843l2.599 2.6zM11.904 21.61l-.64 3.113 3.135-.618-2.495-2.495zM22 10l-6-7H5.003A2.005 2.005 0 0 0 3 5.007v22.986A2 2 0 0 0 4.997 30h15.006A1.999 1.999 0 0 0 22 28.01V18l7.58-7.58a2.003 2.003 0 0 0 .01-2.83l-1.18-1.18a1.994 1.994 0 0 0-2.83.01L22 10zm-1 9v9.007A.997.997 0 0 1 20 29H5c-.545 0-1-.446-1-.995V4.995c0-.54.446-.995.996-.995H15v4.994c0 1.12.894 2.006 1.998 2.006H21L11 21l-1 5 5-1 6-6zM16 4.5v4.491c0 .557.45 1.009.997 1.009H20.7L16 4.5z" fill="#929292" fill-rule="evenodd"/></svg>
